!!!!SEGMENT: pl-gd--ee-1638--005-009_marenzio-luca--il-primo-libro-de-madrigali-spirituali-a-cinque-voci-sento-squarciar.krn
!!!cenid: 15xx:962
!!!COM: Marenzio, Luca
!!!COM-rismid: pe30003955
!!!CDT: ~1553-1599/08/22
!!!CNT: Italian
!!!GTL: Il Primo libro de madrigali spirituali a cinque voci
!!!OTL: Sento squarciar
!!!OMV: 009
!!!PDT: 1588
!!!AGN:
!!!SMS-siglum: PL-GD
!!!SMS-shelfmark: Ee 1638
!!!SMS-variant:
!!!SMS-altvar:
!!!SMS-shelfwork: 005-009 G
!!!NIFC-rismid: 990039269
!!!URL-scan: https://repozytorium.nifc.pl/islandora/object/pl-gd%3A57883/datastream/PDF/view
!!!ONB-nifc: UWAGA: zbiór na stronach: Canto: s. 666-677, Alto: s. 514-525, Tenore: s. 362-373, Bassus: s. 210-221, Quinto: s. 58-69. Uwaga: utwory podzielone wg tytułów w spisach treści dostępnych na końcu każdej księgi głosowej.
!!!AIN: 1 alto 1 bass 1 soprn 1 tenor   1 vox
!!!key: a
**kern	**text	**kern	**text	**kern	**text	**kern	**text	**kern	**text
*part5	*part5	*part4	*part4	*part3	*part3	*part2	*part2	*part1	*part1
*staff5	*staff5	*staff4	*staff4	*staff3	*staff3	*staff2	*staff2	*staff1	*staff1
*I"BASSO	*	*I"TENORE 	*	*I"QVINTO 	*	*I"ALTO	*	*I"CANTO	*
*I'B	*	*I'T	*	*I'V	*	*I'A	*	*I'S	*
*ICvox	*	*ICvox	*	*ICvox	*	*ICvox	*	*ICvox	*
*Ibass	*	*Itenor  	*	*Ivox	*	*Ialto	*	*Isoprn	*
*clefC4	*	*clefC3	*	*clefC2	*	*clefC2	*	*clefG2	*
*k[]	*	*k[]	*	*k[]	*	*k[]	*	*k[]	*
*a:	*	*a:	*	*a:	*	*a:	*	*a:	*
*M2/2	*	*M2/2	*	*M2/2	*	*M2/2	*	*M2/2	*
*met(C|)	*	*met(C)	*	*met(C|)	*	*met(C)	*	*met(C|)	*
=1-	=1-	=1-	=1-	=1-	=1-	=1-	=1-	=1-	=1-
!	!	!	!	!LO:TX:b:t=SEnto	!	!	!	!	!
0r	.	1e	SEn-	0r	.	0r	.	0r	.
=2-	=2-	=2-	=2-	=2-	=2-	=2-	=2-	=2-	=2-
.	.	1A	-to	.	.	.	.	.	.
=3-	=3-	=3-	=3-	=3-	=3-	=3-	=3-	=3-	=3-
0r	.	2r	.	0r	.	0r	.	1ee	SEn-
.	.	2e\	ſquar-	.	.	.	.	.	.
=4-	=4-	=4-	=4-	=4-	=4-	=4-	=4-	=4-	=4-
.	.	4.f\	-ciar	.	.	.	.	1a	-to
.	.	8e\	del	.	.	.	.	.	.
.	.	4d\	vec-	.	.	.	.	.	.
.	.	4f\	-chio	.	.	.	.	.	.
=5-	=5-	=5-	=5-	=5-	=5-	=5-	=5-	=5-	=5-
1A	SEn-	4e\	Tem-	2r	.	0r	.	2r	.
.	.	4d\	-pio'l	.	.	.	.	.	.
.	.	2c#X/	ve-	2e/	ſquar-	.	.	2ee\	ſquar-
=6-	=6-	=6-	=6-	=6-	=6-	=6-	=6-	=6-	=6-
1D	-to	8d\	.	4.a\	-ciar	.	.	4.ff\	-ciar
.	.	8e\	.	.	.	.	.	.	.
.	.	8f\	.	.	.	.	.	.	.
.	.	8g\	.	8g\	del	.	.	8ee\	del
.	.	2a\	-lo	4f\	ve-	.	.	4dd\	ve-
.	.	.	.	4d/	-chio	.	.	4ff\	-cchio
=7-	=7-	=7-	=7-	=7-	=7-	=7-	=7-	=7-	=7-
2r	.	0r	.	4c#X/	tẽ(m)-	1a	SEn-	4ee\	Tem-
.	.	.	.	4d/	-pio'l	.	.	4dd\	-pio'l
2A/	ſquar-	.	.	2e/	ve-	.	.	2cc#X\	ve-
=8-	=8-	=8-	=8-	=8-	=8-	=8-	=8-	=8-	=8-
4.f\	-ciar	.	.	1a	-lo	1d	-to	2dd\	-lo
8e\	del	.	.	.	.	.	.	.	.
4d\	ve-	.	.	.	.	.	.	2r	.
4f\	-chio	.	.	.	.	.	.	.	.
=9-	=9-	=9-	=9-	=9-	=9-	=9-	=9-	=9-	=9-
4e\	tẽ(m)-	1A	sen-	2r	.	2r	.	2r	.
4d\	-pio'l	.	.	.	.	.	.	.	.
2c#X\	ve-	.	.	1a\	Sen-	2e/	ſquar-	2ee\	ſquar-
=10-	=10-	=10-	=10-	=10-	=10-	=10-	=10-	=10-	=10-
2d\	-lo	1D	-to	.	.	4.a\	-ciar	4.ff\	-ciar
.	.	.	.	.	.	8g\	del	8ee\	del
4r	.	.	.	2d/	-to	4f\	ve-	4dd\	ve-
4d\	E'l	.	.	.	.	4a\	-cchio	4ff\	-cchio
*	*	*custos:A	*	*	*	*	*	*custos:ee	*
!	!	!LO:LB:g=original	!	!	!	!	!	!LO:LB:g=original	!
=11-	=11-	=11-	=11-	=11-	=11-	=11-	=11-	=11-	=11-
2G/	mio	2r	.	2r	.	4g\	tem-	4ee\	tẽ(m)-
.	.	.	.	.	.	4f\	-pio'l	4dd\	-pio il
*custos:A	*	*	*	*	*	*	*	*	*
!LO:LB:g=original	!	!	!	!	!	!	!	!	!
2A/	ſi	4r	.	2a\	ſquar-	2e/	ue-	2cc#X\	ve-
.	.	4A/	ſquar-	.	.	.	.	.	.
=12-	=12-	=12-	=12-	=12-	=12-	=12-	=12-	=12-	=12-
2D/	ſtà	4.f\	-ciar	4.a\	-ciar	8d/	-lo	1dd	-lo
.	.	.	.	.	.	8e/	.	.	.
.	.	.	.	.	.	8f\	.	.	.
.	.	8e\	del	8g\	del	8g\	.	.	.
2F/	di-	4d\	vec-	4f\	ve-	2a\	.	.	.
.	.	4f\	-chio	4a\	-chio	.	.	.	.
=13-	=13-	=13-	=13-	=13-	=13-	=13-	=13-	=13-	=13-
2G/	-nan	4e\	tem-	4g\	tẽ(m)-	0r	.	1r	.
.	.	4d\	-pio	4f\	-pio'l	.	.	.	.
*	*	*	*	*custos:e	*	*	*	*	*
!	!	!	!	!LO:PB:g=original	!	!	!	!	!
2A/	zi à	2c#X/	il	2e/	ve-	.	.	.	.
=14-	=14-	=14-	=14-	=14-	=14-	=14-	=14-	=14-	=14-
2B\	gl'oc-	0.d	velo	2d/	-lo	.	.	1dd	E'l
1G/	-chi	.	.	2r	.	.	.	.	.
=15-	=15-	=15-	=15-	=15-	=15-	=15-	=15-	=15-	=15-
.	.	.	.	2r	.	1r	.	2g/	mio
2F#X/	au-	.	.	4r	.	.	.	2a/	ſi
.	.	.	.	4a\	ſquar-	.	.	.	.
*	*	*	*	*	*	*custos:g	*	*	*
!	!	!	!	!	!	!LO:PB:g=original	!	!	!
=16-	=16-	=16-	=16-	=16-	=16-	=16-	=16-	=16-	=16-
1G	-ulto	.	.	4.b\	-ciar	2r	.	2d/	ſtà
.	.	.	.	8a\	del	.	.	.	.
.	.	.	.	4b\	ve-	2g\	E'l	2dd\	diu-
.	.	.	.	4dd\	-chio	.	.	.	.
=17-	=17-	=17-	=17-	=17-	=17-	=17-	=17-	=17-	=17-
0r	.	1r	.	4cc\	tẽ(m)-	2c/	mio	2ee\	-nan-
.	.	.	.	4b\	-pio	.	.	.	.
.	.	.	.	2a\	il	2d/	ſi	2ff#X\	-zi à
=18-	=18-	=18-	=18-	=18-	=18-	=18-	=18-	=18-	=18-
.	.	2r	.	1b	velo	2G/	ſtà	2gg\	gl'o-
.	.	2g\	E'l	.	.	4r	.	2dd\	-cchi
.	.	.	.	.	.	2g\	di-	.	.
=19-	=19-	=19-	=19-	=19-	=19-	=19-	=19-	=19-	=19-
0r	.	2cny/	mio	1r	.	.	.	2ee\	auo-
.	.	.	.	.	.	2a\	-nan-	.	.
.	.	2d\	ſi	.	.	.	.	1dd\	-lto
.	.	.	.	.	.	4a\	-zi à	.	.
=20-	=20-	=20-	=20-	=20-	=20-	=20-	=20-	=20-	=20-
.	.	2G/	ſtà	4r	.	2b\	gl'o-	.	.
.	.	.	.	2g\	di-	.	.	.	.
.	.	2c/	di-	.	.	2e/	-chi a-	2r	.
.	.	.	.	2a\	-nan-	.	.	.	.
=21-	=21-	=21-	=21-	=21-	=21-	=21-	=21-	=21-	=21-
2r	.	2d\	-nã(n)-	.	.	2f\	-uuol-	2r	.
.	.	.	.	4b\	zi à	.	.	.	.
*	*ij	*	*	*	*	*	*	*	*
2cny\	E'l	2e\	-zi à-	1cc\	gl'o-	4g\	-to	2ee\	Sen-
.	.	.	.	.	.	2cc\	Sen-	.	.
=22-	=22-	=22-	=22-	=22-	=22-	=22-	=22-	=22-	=22-
2Fny/	mio	2f\	gl'o-	.	.	.	.	2a/	-to
.	.	.	.	.	.	4f\	-to	.	.
2G/	ſi	2d\	-chi	2b\	-chi	4r	.	4r	.
.	.	.	.	.	.	4d/	ſquar-	4b/	ſquar-
=23-	=23-	=23-	=23-	=23-	=23-	=23-	=23-	=23-	=23-
2C/	ſtà	1e	auol-	2cc\	au-	4.g\	-ciar	4.ee\	-ciar
.	.	.	.	.	.	8f\	del	8dd\	del
2E/	di-	.	.	2g\	-olto	4e/	ve-	4ccny\	ve-
.	.	.	.	.	.	4g\	-chio	4ee\	-cchio
*	*	*	*	*	*	*	*	*custos:dd	*
!	!	!	!	!	!	!	!	!LO:LB:g=original	!
=24-	=24-	=24-	=24-	=24-	=24-	=24-	=24-	=24-	=24-
2F/	-nan-	2A/	-to	1r	.	4f\	tẽ(n)-	4dd\	tẽ(n)-
.	.	.	.	.	.	4e/	-pio'il	4cc\	-pio'l
2G/	zi à	4r	.	.	.	2d/	ve-	2b/	ve-
.	.	4g\	El	.	.	.	.	.	.
*	*	*custos:f#	*	*	*	*custos:e	*	*	*
!	!	!LO:LB:g=original	!	!	!	!LO:LB:g=original	!	!	!
=25-	=25-	=25-	=25-	=25-	=25-	=25-	=25-	=25-	=25-
1A	gl'oc-	2e\	mio	2r	.	1e	-lo	1cc	-lo
.	.	2f#X\	ſi	2a\	E'l	.	.	.	.
*	*	*	*	*custos:d	*	*	*	*	*
!	!	!	!	!LO:LB:g=original	!	!	!	!	!
=26-	=26-	=26-	=26-	=26-	=26-	=26-	=26-	=26-	=26-
1G	-chi	1g	ſtà	2d/	mio	2r	.	2r	.
.	.	.	.	2e/	ſi	2B/	E'l	2gg\	E'l
=27-	=27-	=27-	=27-	=27-	=27-	=27-	=27-	=27-	=27-
1F	au-	2a\	di-	2A/	ſtà	2c/	mio	2cc\	mio
.	.	1d\	-nan-	2a\	di-	2A/	ſi	2dd\	ſi
=28-	=28-	=28-	=28-	=28-	=28-	=28-	=28-	=28-	=28-
0.E	-uolto	.	.	2b#X\	-nan-	4G/	ſtà	4g/	ſtà
.	.	.	.	.	.	4g\	di-	4b/	di'-
.	.	2c/	zi à	2a\	zi à	4g\	-nan-	4cc\	-nan-
.	.	.	.	.	.	4f\	zi à	4dd\	-zi à
=29-	=29-	=29-	=29-	=29-	=29-	=29-	=29-	=29-	=29-
.	.	2B/	gl'oc-	2g#X\	gl'oc-	2e/	gl'o-	4ee\	gl'o-
.	.	.	.	.	.	.	.	4dd\	-cchi
.	.	2A/	-chi a-	1a\	-chi	2e/	-cchi a-	2cc\	auo-
=30-	=30-	=30-	=30-	=30-	=30-	=30-	=30-	=30-	=30-
.	.	1B	-uol-	.	.	1e	-uol-	1b	-lto
.	.	.	.	2g#X\	au-	.	.	.	.
*custos:A	*Xij	*	*	*	*	*	*	*	*
!LO:LB:g=original	!	!	!	!	!	!	!	!	!
=31-	=31-	=31-	=31-	=31-	=31-	=31-	=31-	=31-	=31-
4r	.	1A	-to	2a\	-uolto	1e	-to	4r	.
4.A/	Tre-	.	.	.	.	.	.	4.cc\	Tre-
.	.	.	.	4r	.	.	.	.	.
8A/	-ma	.	.	.	.	.	.	8cc\	-ma
4c\	la	.	.	4.e/	Tre-	.	.	4ee\	la
=32-	=32-	=32-	=32-	=32-	=32-	=32-	=32-	=32-	=32-
2C/	ter-	4r	.	.	.	4r	.	2e/	ter-
.	.	.	.	8e/	-ma	.	.	.	.
.	.	4.c/	Tre-	4gny\	la	4.e/	Tre-	.	.
4C/	-ra	.	.	2cny/	ter-	.	.	4e/	-ra
.	.	8c/	-ma	.	.	8e\	-ma	.	.
*	*ij	*	*	*	*	*	*	*	*ij
4.c\	Tre-	4e\	la	.	.	4g\	la	4.ee\	Tre-
=33-	=33-	=33-	=33-	=33-	=33-	=33-	=33-	=33-	=33-
.	.	2g\	ter-	1e	-ra	2c/	ter-	.	.
8c\	-ma	.	.	.	.	.	.	8ee\	-ma
4e\	la	.	.	.	.	.	.	4gg\	la
2E/	ter-	4g\	-ra	.	.	2B/	-ra	2g/	ter-
*	*	*	*ij	*	*	*	*	*	*
.	.	4.e\	Tre-	.	.	.	.	.	.
*	*	*	*	*	*	*	*	*custos:g	*
!	!	!	!	!	!	!	!	!LO:LB:g=original	!
=34-	=34-	=34-	=34-	=34-	=34-	=34-	=34-	=34-	=34-
4E/	-ra	.	.	2r	.	4r	.	2g/	-ra
.	.	8e\	-ma	.	.	.	.	.	.
*	*Xij	*	*	*	*	*	*ij	*	*Xij
4.e\	Tre-	4g\	la	.	.	4.c/	Tre-	.	.
.	.	2c/	ter-	2cc\	e	.	.	4r	.
8e\	-ma	.	.	.	.	8c/	-ma	.	.
4g\	la	.	.	.	.	4e/	la	4gg\	e
=35-	=35-	=35-	=35-	=35-	=35-	=35-	=35-	=35-	=35-
*	*	*	*	*	*	*col	*	*	*
2G/	ter-	2d\	-ra	4bny\	fa-	3%2g	ter-	4gg\	fa-
.	.	.	.	4a\	ſsi-	.	.	4ffny\	-ſsi
2G/	-ra e	2r	.	4g\	-oſ-	.	.	4ee\	o-
.	.	.	.	.	.	3b\	-ra	.	.
.	.	.	.	4f\	-curo'l	.	.	4dd\	-ſcuro'l
*	*	*	*	*	*	*	*Xij	*	*
=36-	=36-	=36-	=36-	=36-	=36-	=36-	=36-	=36-	=36-
4A/	fa	1r	.	2e/	cie-	3%2a	e fa-	1cc	cie-
4B\	ſsi o-	.	.	.	.	.	.	.	.
4c\	-scu-	.	.	2e/	-lo	.	.	.	.
.	.	.	.	.	.	3a\	-ſsi o-	.	.
4d\	-ro'l	.	.	.	.	.	.	.	.
*	*	*	*Xij	*custos:g	*	*	*	*	*
!	!	!	!	!LO:LB:g=original	!	!	!	!	!
=37-	=37-	=37-	=37-	=37-	=37-	=37-	=37-	=37-	=37-
2e\	ciel-	2r	.	4r	.	3%2g	ſcu-	2b/	-lo
.	.	.	.	4.g\	Tre-	.	.	.	.
*	*	*	*	*	*	*	*	*	*ij
4e\	-lo	2c/	e	.	.	.	.	2ee\	e
.	.	.	.	8g\	-ma	.	.	.	.
.	.	.	.	.	.	3e/	-ro'l	.	.
4c\	e	.	.	4a\	la	.	.	.	.
=38-	=38-	=38-	=38-	=38-	=38-	=38-	=38-	=38-	=38-
*col	*	*	*	*	*	*Xcol	*	*col	*
3%2B-X	fa-	4d\	fa-	2b-X\	ter-	2.f\	cie-	3%2dd	.
.	.	4e\	-ſsi o -	.	.	.	.	.	.
*	*	*custos:f	*	*	*	*	*	*	*
!	!	!LO:LB:g=original	!	!	!	!	!	!	!
.	.	4fny\	-ſcu-	2b-\	-ra	.	.	.	.
3B-\	-ſsi o -	.	.	.	.	.	.	3dd\	-faſ-
.	.	4g\	-ro'l	.	.	8e\	.	.	.
.	.	.	.	.	.	8d/	.	.	.
=39-	=39-	=39-	=39-	=39-	=39-	=39-	=39-	=39-	=39-
3%2A	-ſcu-	2a\	cie-	2r	.	4e/	.	3%2cc	-si
.	.	.	.	.	.	4A/	.	.	.
.	.	2e\	-lo	2cc\	e	2.a\	.	.	.
3A/	-ro'l	.	.	.	.	.	.	3cc\	o-
*Xcol	*	*	*	*	*	*	*	*Xcol	*
=40-	=40-	=40-	=40-	=40-	=40-	=40-	=40-	=40-	=40-
1d	cie-	1r	.	4f\	fa-	.	.	2.a/	-ſcu-
.	.	.	.	4g\	ſsi 	4g\	.	.	.
.	.	.	.	4a\	oſcu-	2.f\	.	.	.
.	.	.	.	4bny\	-ro'l	.	.	8g/	-ro'l
.	.	.	.	.	.	.	.	8f/	.
=41-	=41-	=41-	=41-	=41-	=41-	=41-	=41-	=41-	=41-
1c	-lo	0r	.	1cc	cie-	.	.	1g	cie-
.	.	.	.	.	.	8e\	.	.	.
.	.	.	.	.	.	8d/	.	.	.
.	.	.	.	.	.	2e/	.	.	.
=42-	=42-	=42-	=42-	=42-	=42-	=42-	=42-	=42-	=42-
2F/	Io	.	.	0.cc	-lo	0.f	lo	0a	-lo
2F/	nõ(n)	.	.	.	.	.	.	.	.
*	*	*	*	*	*	*	*	*	*Xij
=43-	=43-	=43-	=43-	=43-	=43-	=43-	=43-	=43-	=43-
2F/	mu-	1r	.	.	.	.	.	.	.
2F/	-to	.	.	.	.	.	.	.	.
=44-	=44-	=44-	=44-	=44-	=44-	=44-	=44-	=44-	=44-
2F/	pen-	2r	.	.	.	.	.	1r	.
2F/	ſier	4r	.	.	.	.	.	.	.
.	.	4f\	nè	.	.	.	.	.	.
=45-	=45-	=45-	=45-	=45-	=45-	=45-	=45-	=45-	=45-
0r	.	4e\	cã(n)-	2r	.	0r	.	2cc\	Io
.	.	4c/	-gio'l	.	.	.	.	.	.
.	.	2f\	vol-	4r	.	.	.	2cc\	nõ(n)
.	.	.	.	4f\	nè	.	.	.	.
=46-	=46-	=46-	=46-	=46-	=46-	=46-	=46-	=46-	=46-
.	.	2c/	-to	4g\	cã(n)-	.	.	2cc\	mu-
.	.	.	.	4e/	-gio'l	.	.	.	.
.	.	4r	.	2f\	vol-	.	.	2cc\	-to
*	*	*	*ij	*	*	*	*	*	*
.	.	4f\	nè	.	.	.	.	.	.
=47-	=47-	=47-	=47-	=47-	=47-	=47-	=47-	=47-	=47-
1r	.	4g\	cã(n)-	2c/	-to	1r	.	2cc\	pẽ(n)-
.	.	4e\	-gio'l	.	.	.	.	.	.
.	.	2f\	vol-	4r	.	.	.	2cc\	-ſier
*	*	*	*	*	*ij	*	*	*	*
.	.	.	.	4f\	nè	.	.	.	.
*	*	*	*	*custos:e	*	*	*	*	*
!	!	!	!	!LO:LB:g=original	!	!	!	!	!
=48-	=48-	=48-	=48-	=48-	=48-	=48-	=48-	=48-	=48-
4r	.	2c/	-to	4e/	cã(n)-	2g\	Io	4r	.
4c\	nè	.	.	4e/	-gio'l	.	.	4cc\	nè
4Bny\	cã(n)-	2r	.	2d/	vol-	2g\	nõ(n)	4dd\	cã(n)-
4G/	-gio'l	.	.	.	.	.	.	4b/	-gio'l
*	*	*	*	*	*	*	*	*custos:cc	*
!	!	!	!	!	!	!	!	!LO:LB:g=original	!
=49-	=49-	=49-	=49-	=49-	=49-	=49-	=49-	=49-	=49-
2c\	vol-	4r	.	2e/	-to	2g\	mu-	2cc\	vol-
.	.	4c/	nè-	.	.	.	.	.	.
2G/	-to	4d\	-cã(n)-	4r	.	2g\	-to	2b/	-to
*	*	*	*	*	*Xij	*	*	*	*
.	.	4B/	-gio'l	4d/	nè	.	.	.	.
=50-	=50-	=50-	=50-	=50-	=50-	=50-	=50-	=50-	=50-
4r	.	2c/	vol-	4e/	cã(n)-	2g\	pẽ(n)-	4r	.
*	*ij	*	*	*	*	*	*	*	*
4c\	nè	.	.	4e/	-gio'l	.	.	4cc\	nè
4d\	cã(n)-	2G/	-to	2d/	vol-	4g\	-ſier	4b/	cã(n)-
4B\	-gio'l	.	.	.	.	4d/	nè	4b/	-gio'l
*	*	*custos:c	*Xij	*	*	*	*	*	*
!	!	!LO:LB:g=original	!	!	!	!	!	!	!
=51-	=51-	=51-	=51-	=51-	=51-	=51-	=51-	=51-	=51-
2c\	vol-	4r	.	1g	-to	4e/	cã(n)-	2ee\	vol-
.	.	4.c/	spe-	.	.	4c/	-gio'l	.	.
2G/	-to	.	.	.	.	2d/	vol-	2dd\	-to
.	.	8B/	-za-	.	.	.	.	.	.
.	.	4B/	-ſti 	.	.	.	.	.	.
*custos:A	*Xij	*	*	*	*	*	*	*	*
!LO:LB:g=original	!	!	!	!	!	!	!	!	!
=52-	=52-	=52-	=52-	=52-	=52-	=52-	=52-	=52-	=52-
4r	.	2A/	ſa-	2r	.	2e/	-to	4r	.
4.A/	spez-	.	.	.	.	.	.	4.cc\	Spe-
*	*	*	*	*	*	*custos:e	*	*	*
!	!	!	!	!	!	!LO:LB:g=original	!	!	!
.	.	2E/	-ſi	4.e/	spez-	2r	.	.	.
8A/	-za-	.	.	.	.	.	.	8cc\	-zã(n)-
2G/	-ſi i	.	.	.	.	.	.	2b/	-ſi i
.	.	.	.	8e/	-zà-	.	.	.	.
=53-	=53-	=53-	=53-	=53-	=53-	=53-	=53-	=53-	=53-
.	.	0r	.	2d/	-ſti i  	2r	.	.	.
2F/	ſa-	.	.	.	.	.	.	2a/	ſa-
.	.	.	.	2c/	ſa-	4r	.	.	.
2E/	-ſi	.	.	.	.	4.e/	Spe-	2g/	-ſsi
=54-	=54-	=54-	=54-	=54-	=54-	=54-	=54-	=54-	=54-
.	.	.	.	2B/	ſsi	.	.	.	.
.	.	.	.	.	.	8e/	-zzã(n)-	.	.
*	*ij	*	*	*	*ij	*	*	*	*ij
4.G/	spez-	.	.	.	.	2d/	-ſi i	4.b/	Spe-
.	.	.	.	4.d/	spez-	.	.	.	.
8G/	-za -	.	.	.	.	.	.	8b/	-zã(n)-
2F/	-ſi i	.	.	.	.	2A/	ſa-	2a/	-ſi i
.	.	.	.	8d/	-za-	.	.	.	.
=55-	=55-	=55-	=55-	=55-	=55-	=55-	=55-	=55-	=55-
.	.	1r	.	2c/	ſti  	.	.	.	.
2E/	ſa-	.	.	.	.	4c/	-ſsi	2g/	ſa-
.	.	.	.	4.B/	i	4r	.	.	.
4D/	-ſi	.	.	.	.	4d/	et	4f/	-ſsi
.	.	.	.	8c/	.	.	.	.	.
*	*Xij	*	*	*	*	*	*	*	*Xij
=56-	=56-	=56-	=56-	=56-	=56-	=56-	=56-	=56-	=56-
4r	.	2r	.	2d/	ſa-	2f\	io	4r	.
4d\	et	.	.	.	.	.	.	4a/	et
1c\	io	4r	.	2A/	-ſsi	4r	.	1cc\	io
.	.	4c/	et	.	.	4e/	et	.	.
*	*	*	*	*	*Xij	*	*	*	*
=57-	=57-	=57-	=57-	=57-	=57-	=57-	=57-	=57-	=57-
.	.	2e\	io	0r	.	2g\	io	.	.
2G/	ſon	2d\	ſon	.	.	2g\	ſon	2b/	ſon
=58-	=58-	=58-	=58-	=58-	=58-	=58-	=58-	=58-	=58-
1B	fred-	1d#X	fre-	.	.	1f#X	fre-	1b	fre-
=59-	=59-	=59-	=59-	=59-	=59-	=59-	=59-	=59-	=59-
1B	-do	1d#yX	-do	2r	.	1f#yX	-do	1.b	-do
.	.	.	.	2B/	ſon-	.	.	.	.
*	*	*	*	*custos:B	*	*	*	*	*
!	!	!	!	!LO:LB:g=original	!	!	!	!	!
=60-	=60-	=60-	=60-	=60-	=60-	=60-	=60-	=60-	=60-
0E	ge-	0e	ge-	2B/	-fred-	2g#X\	ge-	.	.
.	.	.	.	2c/	-do	2.a\	.	1ee\	ge-
=61-	=61-	=61-	=61-	=61-	=61-	=61-	=61-	=61-	=61-
.	.	.	.	1B	ge-	.	.	.	.
.	.	.	.	.	.	8g#X\	.	.	.
.	.	.	.	.	.	8f#X\	.	.	.
.	.	.	.	.	.	2g#X\	.	2b/	-lo
=62-	=62-	=62-	=62-	=62-	=62-	=62-	=62-	=62-	=62-
1D	-lo	4f\	-lo	1d	-lo	4a\	-lo	4r	.
.	.	2a\	sor-	.	.	2fny\	Sor-	2dd\	Sor-
.	.	4f\	-go-	.	.	4a\	-go-	4ff\	-go-
*custos:c	*	*	*	*	*	*custos:cc	*	*custos:gg	*
!LO:LB:g=original	!	!	!	!	!	!LO:LB:g=original	!	!LO:LB:g=original	!
=63-	=63-	=63-	=63-	=63-	=63-	=63-	=63-	=63-	=63-
2r	.	1e	-no	2.c/	Sor-	2cc\	-no i	2gg\	-no i
2.c\	Sor-	.	.	.	.	1gny\	mor-	1ee\	mor-
.	.	.	.	4e/	-go-	.	.	.	.
=64-	=64-	=64-	=64-	=64-	=64-	=64-	=64-	=64-	=64-
.	.	2c/	ſor-	2g\	-no	.	.	.	.
4e\	-go-	.	.	.	.	.	.	.	.
2g\	-no i	2dny\	-go-	2.G/	Sor-	2b\	-ti	2dd\	-ti
=65-	=65-	=65-	=65-	=65-	=65-	=65-	=65-	=65-	=65-
0C	mor-	2e\	-no i	.	.	2r	.	2r	.
.	.	.	.	4c/	-go-	.	.	.	.
.	.	1E/	mor-	2e/	-no	2g\	i	2ee\	i
=66-	=66-	=66-	=66-	=66-	=66-	=66-	=66-	=66-	=66-
.	.	.	.	1c	i mor-	1G	mor-	1e	mor-
.	.	2E/	-ti	.	.	.	.	.	.
=67-	=67-	=67-	=67-	=67-	=67-	=67-	=67-	=67-	=67-
1C	-ti	2r	.	1c	-ti	1G	-ti i	1e	-ti i
.	.	1c\	i	.	.	.	.	.	.
=68-	=68-	=68-	=68-	=68-	=68-	=68-	=68-	=68-	=68-
1F	igi-	.	.	2r	.	1A	gia-	1f	gia-
.	.	1F/	gia-	2c/	i giac-	.	.	.	.
*	*	*custos:F	*	*	*	*	*	*	*
!	!	!LO:LB:g=original	!	!	!	!	!	!	!
=69-	=69-	=69-	=69-	=69-	=69-	=69-	=69-	=69-	=69-
2BB-X/	-acio	.	.	2d/	-cio	2B-X/	-ccio ã(n)-	2f/	-cio ã(n)-
1BB-/	ancor	2F/	-cio	2d/	ã(n)-	1B-/	-cor	1f/	-cor
=70-	=70-	=70-	=70-	=70-	=70-	=70-	=70-	=70-	=70-
.	.	2.D/	an-	2d/	-cor	.	.	.	.
2D/	ſe-	.	.	2d/	ſe-	2A/	-ſe-	2f/	ſe-
.	.	4D/	-cor	.	.	.	.	.	.
=71-	=71-	=71-	=71-	=71-	=71-	=71-	=71-	=71-	=71-
1AA	-pol-	1E	se-	1c#X	-pol-	1A	-pol-	1e	-pol-
=72-	=72-	=72-	=72-	=72-	=72-	=72-	=72-	=72-	=72-
1AA	-to	2E/	-pol-	1cny	-to	1A	-to	1e	-to
.	.	1e\	-to	.	.	.	.	.	.
=73-	=73-	=73-	=73-	=73-	=73-	=73-	=73-	=73-	=73-
1A	Ma	.	.	4r	.	1c#X	Ma	1r	.
.	.	.	.	4A/	Ma-	.	.	.	.
.	.	1A/	Ma	4e/	-tu	.	.	.	.
.	.	.	.	4e/	ca-	.	.	.	.
*	*	*	*	*custos:f	*	*	*	*	*
!	!	!	!	!LO:LB:g=original	!	!	!	!	!
=74-	=74-	=74-	=74-	=74-	=74-	=74-	=74-	=74-	=74-
2D/	tu	.	.	4f\	-gio	2d/	tu	1a	Ma
.	.	.	.	4g\	di	.	.	.	.
2d\	ca-	2f\	tu	4a\	si	2r	.	.	.
.	.	.	.	4b\	grã(n)	.	.	.	.
=75-	=75-	=75-	=75-	=75-	=75-	=75-	=75-	=75-	=75-
4c\	-gion	4e\	ca-	2cc\	co-	1e	Ma	2ee\	tu
4B\	di	4d\	-giõ(n)	.	.	.	.	.	.
4A/	sì	4c/	di	2cc\	ſe	.	.	2e/	ca-
4G/	grã(n)	4B/	si	.	.	.	.	.	.
=76-	=76-	=76-	=76-	=76-	=76-	=76-	=76-	=76-	=76-
1F	co-	2c/	grã(n)	2r	.	2A/	tu	4f/	-giõ(n)
.	.	.	.	.	.	.	.	4g/	di
.	.	2c/	coſe	2f\	ca-	2a\	ca-	4a/	sì
.	.	.	.	.	.	.	.	4b/	grã(n)
=77-	=77-	=77-	=77-	=77-	=77-	=77-	=77-	=77-	=77-
1C	ſe	2r	.	4e/	-gion	4g\	-giõ(n)	2cc\	co-
.	.	.	.	4f\	di	4f\	di	.	.
.	.	2e\	Ma	4g\	sì	4e/	sì	4cc\	-ſe
*	*	*	*	*	*	*	*	*	*ij
.	.	.	.	4e/	grã(n)	4a\	gran	4cc\	Ma
*	*	*	*	*	*	*custos:a	*	*	*
!	!	!	!	!	!	!LO:LB:g=original	!	!	!
=78-	=78-	=78-	=78-	=78-	=78-	=78-	=78-	=78-	=78-
1D	dan-	2A/	tu	2d/	co-	2a\	co-	2f/	tu
.	.	2a\	ca-	2d/	ſe	2f\	ſe	2ff\	ca-
*custos:E	*	*	*	*	*	*	*	*	*
!LO:LB:g=original	!	!	!	!	!	!	!	!	!
=79-	=79-	=79-	=79-	=79-	=79-	=79-	=79-	=79-	=79-
1E	-mi	4g\	-gion	2r	.	2r	.	4ee\	-giõ(n)
.	.	4f\	di	.	.	.	.	4dd\	di
*	*	*	*	*	*	*	*	*custos:cc	*
!	!	!	!	!	!	!	!	!LO:LB:g=original	!
.	.	4e\	sì	2g\	Ma	2e/	Ma	4cc\	sì
.	.	4g\	grã(n)	.	.	.	.	4b/	grã(n)
=80-	=80-	=80-	=80-	=80-	=80-	=80-	=80-	=80-	=80-
1F	Ch'io	1f	co-	2c/	tu	2A/	tu	1a	co-
.	.	.	.	2cc\	ca-	2a\	ca-	.	.
=81-	=81-	=81-	=81-	=81-	=81-	=81-	=81-	=81-	=81-
1G	ri-	2d\	ſe	4b\	-gion	4g\	-gion	2dd\	-ſe
.	.	.	.	4a\	di	4f\	di	.	.
*	*	*	*	*	*	*	*	*	*Xij
.	.	1e\	dan-	4g\	sì	4e/	sì	1gg\	dã(n)-
.	.	.	.	4f\	gran	4d/	grã(n)	.	.
*	*	*custos:d	*	*custos:e	*	*	*	*	*
!	!	!LO:LB:g=original	!	!LO:LB:g=original	!	!	!	!	!
=82-	=82-	=82-	=82-	=82-	=82-	=82-	=82-	=82-	=82-
00A	-ſor-	.	.	2e/	co-	2c#X/	co-	.	.
.	.	2d\	-mi	2a\	-ſe	2d/	.	2ff\	-mi
=83-	=83-	=83-	=83-	=83-	=83-	=83-	=83-	=83-	=83-
.	.	2c/	ch'io	1r	.	2e/	ſe	2ee\	ch'io
.	.	2f\	ri-	.	.	2r	.	2dd\	ri-
=84-	=84-	=84-	=84-	=84-	=84-	=84-	=84-	=84-	=84-
.	.	1.e	-ſor-	2A/	do-	2cny/	dam-	1.ee	-ſor-
.	.	.	.	2B/	-mi-	2d/	-mi	.	.
=85-	=85-	=85-	=85-	=85-	=85-	=85-	=85-	=85-	=85-
.	.	.	.	2c/	-ni	2e/	Ch'io	.	.
.	.	2a\	-ga	2d/	ch'io-	2f\	ri-	4dd\	.
.	.	.	.	.	.	.	.	4cc\	.
=86-	=86-	=86-	=86-	=86-	=86-	=86-	=86-	=86-	=86-
0G	-ga	1r	.	1e	-riſor-	0g	ſor-	2b/	.
.	.	.	.	.	.	.	.	2.cc\	.
=87-	=87-	=87-	=87-	=87-	=87-	=87-	=87-	=87-	=87-
.	.	2r	.	1d	-ga	.	.	.	.
.	.	.	.	.	.	.	.	8b/	.
.	.	.	.	.	.	.	.	8a/	.
.	.	1g\	a-	.	.	.	.	2b/	.
=88-	=88-	=88-	=88-	=88-	=88-	=88-	=88-	=88-	=88-
2r	.	.	.	2r	.	2.c/	-ga	0cc	-ga
1c\	a-	2g\	-pra	1e\	a-	.	.	.	.
.	.	.	.	.	.	4d/	.	.	.
=89-	=89-	=89-	=89-	=89-	=89-	=89-	=89-	=89-	=89-
.	.	1g	gl'o-	.	.	1e	.	.	.
2E/	-pra	.	.	2g\	-pra	.	.	.	.
=90-	=90-	=90-	=90-	=90-	=90-	=90-	=90-	=90-	=90-
1F	gl'oc-	1c	-chi	1a	gl'oc-	2r	.	2r	.
.	.	.	.	.	.	1cc\	a-	1ff\	a-
=91-	=91-	=91-	=91-	=91-	=91-	=91-	=91-	=91-	=91-
1C	-chi	2r	.	1g	-chi	.	.	.	.
.	.	2c/	e'l	.	.	2e/	-pra	2ee\	-pra
*	*ij	*	*	*	*	*custos:f	*	*	*
!	!	!	!	!	!	!LO:LB:g=original	!	!	!
=92-	=92-	=92-	=92-	=92-	=92-	=92-	=92-	=92-	=92-
2r	.	8F/	cor	4r	.	1f	gl'o-	0cc	gl'o-
.	.	8G/	.	.	.	.	.	.	.
.	.	8A/	.	4cc\	e'l	.	.	.	.
.	.	8B/	.	.	.	.	.	.	.
1F/	a-	2c/	.	8f\	cor-	.	.	.	.
.	.	.	.	8g\	.	.	.	.	.
.	.	.	.	8a\	.	.	.	.	.
.	.	.	.	8b\	.	.	.	.	.
=93-	=93-	=93-	=93-	=93-	=93-	=93-	=93-	=93-	=93-
.	.	4A/	in-	4cc\	in-	1c	-chi	.	.
.	.	4.a\	-fiam-	4cc\	-fiam-	.	.	.	.
2A/	-pra	.	.	8cc\	.	.	.	.	.
.	.	8g\	.	8b\	.	.	.	.	.
*	*	*	*	*custos:a	*	*	*	*	*
!	!	!	!	!LO:LB:g=original	!	!	!	!	!
.	.	8f\	.	8a\	.	.	.	.	.
.	.	8e\	.	8g\	.	.	.	.	.
=94-	=94-	=94-	=94-	=94-	=94-	=94-	=94-	=94-	=94-
1B-X	gl'oc-	2d\	.	1f	mi	4r	.	1dd	-cchi
.	.	.	.	.	.	4f\	e'l	.	.
.	.	2d\	-mi	.	.	8B-X/	cor	.	.
.	.	.	.	.	.	8c/	.	.	.
.	.	.	.	.	.	8d/	.	.	.
.	.	.	.	.	.	8e/	.	.	.
=95-	=95-	=95-	=95-	=95-	=95-	=95-	=95-	=95-	=95-
1F	-chi	4r	.	2a\	a-	2f\	.	4r	.
.	.	4c/	e'l	.	.	.	.	4cc\	e'l
*	*Xij	*custos:A	*	*	*	*	*	*	*
!	!	!LO:LB:g=original	!	!	!	!	!	!	!
.	.	8A/	cor	1cc\	-pra	2a\	in-	8f/	cor
.	.	8B/	.	.	.	.	.	8g/	.
.	.	8c/	.	.	.	.	.	8a/	.
.	.	8d\	.	.	.	.	.	8b/	.
=96-	=96-	=96-	=96-	=96-	=96-	=96-	=96-	=96-	=96-
1C	e'l	4e\	in-	.	.	8g\	-fiam-	4cc\	.
.	.	.	.	.	.	8f\	.	.	.
.	.	4c/	fiam-	.	.	8e/	.	4ee\	in-
.	.	.	.	.	.	8d/	.	.	.
.	.	8c/	.	2e/	gl'oc-	4c/	.	8ee\	-fiam-
.	.	8B/	.	.	.	.	.	8dd\	.
*	*	*	*	*	*	*	*	*custos:cc	*
!	!	!	!	!	!	!	!	!LO:LB:g=original	!
.	.	8A/	.	.	.	4c/	-mi	8cc\	.
.	.	8G/	.	.	.	.	.	8b\	.
=97-	=97-	=97-	=97-	=97-	=97-	=97-	=97-	=97-	=97-
1Dyy	.	4.F/	.	2f\	-chi	4r	.	4a/	.
.	.	.	.	.	.	4d/	e'l	4a/	-mi
.	.	8G/	.	.	.	.	.	.	.
.	.	2A/	.	2d/	e'l	8a\	cor	4r	.
.	.	.	.	.	.	8g\	.	.	.
.	.	.	.	.	.	8f\	.	4a/	e'l
.	.	.	.	.	.	8e\	.	.	.
=98-	=98-	=98-	=98-	=98-	=98-	=98-	=98-	=98-	=98-
1D	cor	4.B/	.	4r	.	4d/	.	8dd\	cor
.	.	.	.	.	.	.	.	8cc\	.
.	.	.	.	4d/	cor	4dd\	in-	8b/	.
.	.	8c/	.	.	.	.	.	8a/	.
.	.	2d\	mi	4.g\	.	8dd\	-fiam-	4g/	.
.	.	.	.	.	.	8cc\	.	.	.
*col	*	*	*	*	*	*custos:b	*	*	*
!	!	!	!	!	!	!LO:LB:g=original	!	!	!
.	.	.	.	.	.	8b\	.	4gg\	.
.	.	.	.	8f\	.	8a\	.	.	.
=99-	=99-	=99-	=99-	=99-	=99-	=99-	=99-	=99-	=99-
3%2C	ifia-	2r	.	8e\	.	2g\	.	8gg\	in-
.	.	.	.	8d/	.	.	.	8ff\	-fiam-
.	.	.	.	2c/	.	.	.	8ee\	.
.	.	.	.	.	.	.	.	8dd\	.
.	.	2g\	in-	.	.	2e/	-mi	2cc\	.
3D/	.	.	.	.	.	.	.	.	.
.	.	.	.	8B/	.	.	.	.	.
.	.	.	.	8A/	.	.	.	.	.
*Xcol	*	*	*	*	*	*	*	*	*
=100-	=100-	=100-	=100-	=100-	=100-	=100-	=100-	=100-	=100-
0E	.	8g\	fiam-	2G/	.	4r	.	4b/	-mi
.	.	8f\	.	.	.	.	.	.	.
.	.	8e\	.	.	.	4e/	in-	4gg\	in-
.	.	8d\	.	.	.	.	.	.	.
.	.	4c/	.	4r	.	8e/	-fiam-	8gg\	-fiam-
.	.	.	.	.	.	8f\	.	8ff\	.
.	.	8B/	.	4e/	in-	8g\	.	8ee\	.
.	.	8A/	.	.	.	8a\	.	8dd\	.
=101-	=101-	=101-	=101-	=101-	=101-	=101-	=101-	=101-	=101-
.	.	4G#X/	.	1e	-fiam-	4b#X\	.	4.ee\	.
.	.	4A/	.	.	.	2a\	.	.	.
.	.	.	.	.	.	.	.	16dd\	.
.	.	.	.	.	.	.	.	16cc\	.
.	.	2B/	.	.	.	.	.	2b/	.
.	.	.	.	.	.	4g#X\	.	.	.
=102-	=102-	=102-	=102-	=102-	=102-	=102-	=102-	=102-	=102-
00A	-mi.	00A	mi.	00e	-mi.	00a	mi.	00cc#X	-mi.
==	==	==	==	==	==	==	==	==	==
*-	*-	*-	*-	*-	*-	*-	*-	*-	*-
!!!system-decoration: [(s1,s2,s3,s4,s5)]
!!!ENC: Marta Opryszak
!!!END: 2022-07-04
!!!ENC: Natalia Wrzos
!!!END: 2022-07-28
